**kern
*staff2
*tb48
=1-
*clefG2
*k[b-]
*met(c)
*M4/4
2r
.
.
.
.
.
.
.
.
.
.
.
.
.
.
.
.
.
.
.
.
.
.
.
4r
.
.
.
.
.
.
.
.
.
.
.
8f/L 8a/L
.
.
.
.
.
8d/J 8f/J
.
.
.
.
.
=2
4c#/ 4e/
.
.
.
.
.
.
.
.
.
.
.
8f/L 8a/L
.
.
.
.
.
8d/J 8f/J
.
.
.
.
.
4c#/ 4e/
.
.
.
.
.
.
.
.
.
.
.
8f/L 8a/L
.
.
.
.
.
8dd/J
.
.
.
.
.
=3
2f/ 2a/ 2dd/
.
.
.
.
.
.
.
.
.
.
.
.
.
.
.
.
.
.
.
.
.
.
.
4e/ 4a/ 4cc#/
.
.
.
.
.
.
.
.
.
.
.
4c#/ 4e/ 4a/
.
.
.
.
.
.
.
.
.
.
.
=4
*^
2.b-/	4d\ 4f\
.	.
.	.
.	.
.	.
.	.
.	.
.	.
.	.
.	.
.	.
.	.
.	4g\
.	.
.	.
.	.
.	.
.	.
.	.
.	.
.	.
.	.
.	.
.	.
.	4f\
.	.
.	.
.	.
.	.
.	.
.	.
.	.
.	.
.	.
.	.
.	.
4b-/	8g\L
.	.
.	.
.	.
.	.
.	.
.	8f\J
.	.
.	.
.	.
.	.
.	.
*v	*v
=5
!!linebreak:original
*^
4e\	2.a/
.	.
.	.
.	.
.	.
.	.
.	.
.	.
.	.
.	.
.	.
.	.
4c#\	.
.	.
.	.
.	.
.	.
.	.
.	.
.	.
.	.
.	.
.	.
.	.
4d\	.
.	.
.	.
.	.
.	.
.	.
.	.
.	.
.	.
.	.
.	.
.	.
*v	*v
8b-\L 8dd\L
.
.
.
.
.
8g\J 8b-\J
.
.
.
.
.
=6
4f#/ 4a/
.
.
.
.
.
.
.
.
.
.
.
8b-\L 8dd\L
.
.
.
.
.
8g\J 8b-\J
.
.
.
.
.
4f#/ 4a/
.
.
.
.
.
.
.
.
.
.
.
8b-\L 8dd\L
.
.
.
.
.
8gg\J
.
.
.
.
.
=7
2b-\ 2dd\ 2gg\
.
.
.
.
.
.
.
.
.
.
.
.
.
.
.
.
.
.
.
.
.
.
.
4a\ 4ff#\
.
.
.
.
.
.
.
.
.
.
.
4f#/ 4dd/
.
.
.
.
.
.
.
.
.
.
.
=8
*^
4dd/ 4ff/	2g\
.	.
.	.
.	.
.	.
.	.
.	.
.	.
.	.
.	.
.	.
.	.
4cc/	.
.	.
.	.
.	.
.	.
.	.
.	.
.	.
.	.
.	.
.	.
.	.
*v	*v
2f/ 2bn/
.
.
.
.
.
.
.
.
.
.
.
.
.
.
.
.
.
.
.
.
.
.
.
=9
!!linebreak:original
4f/ 4a/ 4cc/
.
.
.
.
.
.
.
.
.
.
.
4f/ 4a/
.
.
.
.
.
.
.
.
.
.
.
4e/ 4g/
.
.
.
.
.
.
.
.
.
.
.
4c/ 4e/
.
.
.
.
.
.
.
.
.
.
.
=10
4A/ 4f/
.
.
.
.
.
.
.
.
.
.
.
8B-/L 8d/L
.
.
.
.
.
8A/J 8c/J
.
.
.
.
.
4A/ 4c/
.
.
.
.
.
.
.
.
.
.
.
4f/ 4a/
.
.
.
.
.
.
.
.
.
.
.
=11
4g/ 4a/
.
.
.
.
.
.
.
.
.
.
.
4f/ 4b-/
.
.
.
.
.
.
.
.
.
.
.
4e/ 4f/ 4a/
.
.
.
.
.
.
.
.
.
.
.
4d/ 4f/ 4b-/
.
.
.
.
.
.
.
.
.
.
.
=12
4c/ 4f/ 4cc/
.
.
.
.
.
.
.
.
.
.
.
4B-/ 4e/
.
.
.
.
.
.
.
.
.
.
.
*^
2f/ 2g/	(4A\
.	.
.	.
.	.
.	.
.	.
.	.
.	.
.	.
.	.
.	.
.	.
.	4c#\)
.	.
.	.
.	.
.	.
.	.
.	.
.	.
.	.
.	.
.	.
.	.
*v	*v
=13
!!linebreak:original
*^
4f/	4d\
.	.
.	.
.	.
.	.
.	.
.	.
.	.
.	.
.	.
.	.
.	.
*v	*v
4c/ 4e-/
.
.
.
.
.
.
.
.
.
.
.
4B-/ 4d/
.
.
.
.
.
.
.
.
.
.
.
4c/ 4e-/
.
.
.
.
.
.
.
.
.
.
.
=14
4B-/ 4d/
.
.
.
.
.
.
.
.
.
.
.
8g-/L 8ee-/L
.
.
.
.
.
8dd/
.
.
.
.
.
8f/J 8dd/J
.
.
.
.
.
8c/
.
.
.
.
.
4c/ 4en/
.
.
.
.
.
.
.
.
.
.
.
=15
4d/ 4f/
.
.
.
.
.
.
.
.
.
.
.
4d/ 4f#/ 4a/
.
.
.
.
.
.
.
.
.
.
.
4d/ 4g/ 4b-/
.
.
.
.
.
.
.
.
.
.
.
4d/ 4a/
.
.
.
.
.
.
.
.
.
.
.
=16
4d/ 4g/ 4b-/
.
.
.
.
.
.
.
.
.
.
.
4d/ 4g/ 4bn/
.
.
.
.
.
.
.
.
.
.
.
4c/ 4g/ 4cc/
.
.
.
.
.
.
.
.
.
.
.
4e/ 4g/ 4cc#/
.
.
.
.
.
.
.
.
.
.
.
=17
!!linebreak:original
2f/ 2a/ 2dd/
.
.
.
.
.
.
.
.
.
.
.
.
.
.
.
.
.
.
.
.
.
.
.
4r
.
.
.
.
.
.
.
.
.
.
.
4d/ 4g/ 4b-/
.
.
.
.
.
.
.
.
.
.
.
=18
4d/ 4a/
.
.
.
.
.
.
.
.
.
.
.
4d/
.
.
.
.
.
.
.
.
.
.
.
4d/
.
.
.
.
.
.
.
.
.
.
.
4c#/
.
.
.
.
.
.
.
.
.
.
.
=19
4d/
.
.
.
.
.
.
.
.
.
.
.
4r
.
.
.
.
.
.
.
.
.
.
.
4r
.
.
.
.
.
.
.
.
.
.
.
8.f/L 8.a/L
.
.
.
.
.
.
.
.
16d/JJ 16f/JJ
.
.
=20
4c#/ 4e/
.
.
.
.
.
.
.
.
.
.
.
4r
.
.
.
.
.
.
.
.
.
.
.
4r
.
.
.
.
.
.
.
.
.
.
.
8.f/L 8.a/L
.
.
.
.
.
.
.
.
16d/JJ 16f/JJ
.
.
=21
!!linebreak:original
4c#/ 4e/
.
.
.
.
.
.
.
.
.
.
.
4r
.
.
.
.
.
.
.
.
.
.
.
4r
.
.
.
.
.
.
.
.
.
.
.
8.f/L 8.a/L
.
.
.
.
.
.
.
.
16d/JJ 16f/JJ
.
.
=22
4c#/ 4e/
.
.
.
.
.
.
.
.
.
.
.
8.f/L 8.a/L
.
.
.
.
.
.
.
.
16d/JJ 16f/JJ
.
.
4c#/ 4e/
.
.
.
.
.
.
.
.
.
.
.
8f/L 8a/L
.
.
.
.
.
8dd/J
.
.
.
.
.
=23
2f/ 2a/ 2dd/
.
.
.
.
.
.
.
.
.
.
.
.
.
.
.
.
.
.
.
.
.
.
.
4e/ 4cc#/
.
.
.
.
.
.
.
.
.
.
.
4c#/ 4a/
.
.
.
.
.
.
.
.
.
.
.
=24
*^
2.b-/	4d\
.	.
.	.
.	.
.	.
.	.
.	.
.	.
.	.
.	.
.	.
.	.
.	4a\
.	.
.	.
.	.
.	.
.	.
.	.
.	.
.	.
.	.
.	.
.	.
.	4g\
.	.
.	.
.	.
.	.
.	.
.	.
.	.
.	.
.	.
.	.
.	.
4b-/	4f\
.	.
.	.
.	.
.	.
.	.
.	.
.	.
.	.
.	.
.	.
.	.
*v	*v
=25
!!linebreak:original
*^
4e\	2.a/
.	.
.	.
.	.
.	.
.	.
.	.
.	.
.	.
.	.
.	.
.	.
4c#\	.
.	.
.	.
.	.
.	.
.	.
.	.
.	.
.	.
.	.
.	.
.	.
4d\	.
.	.
.	.
.	.
.	.
.	.
.	.
.	.
.	.
.	.
.	.
.	.
*v	*v
8.b-\L 8.dd\L
.
.
.
.
.
.
.
.
16g\JJ 16b-\JJ
.
.
=26
4f#/ 4a/
.
.
.
.
.
.
.
.
.
.
.
8b-\L 8dd\L
.
.
.
.
.
8g\J 8b-\J
.
.
.
.
.
4f#/ 4a/
.
.
.
.
.
.
.
.
.
.
.
8b-\L 8dd\L
.
.
.
.
.
8gg\J
.
.
.
.
.
=27
2b-\ 2dd\ 2gg\
.
.
.
.
.
.
.
.
.
.
.
.
.
.
.
.
.
.
.
.
.
.
.
4a\ 4ff#\
.
.
.
.
.
.
.
.
.
.
.
4f#/ 4dd/
.
.
.
.
.
.
.
.
.
.
.
=28
2g/ 2ffn/
.
.
.
.
.
.
.
.
.
.
.
.
.
.
.
.
.
.
.
.
.
.
.
4dd\
.
.
.
.
.
.
.
.
.
.
.
4cc\
.
.
.
.
.
.
.
.
.
.
.
=29
!!linebreak:original
(4f/ 4a/ 4cc/
.
.
.
.
.
.
.
.
.
.
.
4f/) 4a/
.
.
.
.
.
.
.
.
.
.
.
4e/ 4g/
.
.
.
.
.
.
.
.
.
.
.
4c/ 4e/
.
.
.
.
.
.
.
.
.
.
.
=30
4c/ 4f/
.
.
.
.
.
.
.
.
.
.
.
4r
.
.
.
.
.
.
.
.
.
.
.
4r
.
.
.
.
.
.
.
.
.
.
.
4a/
.
.
.
.
.
.
.
.
.
.
.
=31
4g/ 4a/
.
.
.
.
.
.
.
.
.
.
.
4f/ 4b-/
.
.
.
.
.
.
.
.
.
.
.
4e/ 4a/
.
.
.
.
.
.
.
.
.
.
.
4d/ 4f/
.
.
.
.
.
.
.
.
.
.
.
=32
!!linebreak:original
4c/ 4f/
.
.
.
.
.
.
.
.
.
.
.
4B-/ 4e/
.
.
.
.
.
.
.
.
.
.
.
4A/ 4f/
.
.
.
.
.
.
.
.
.
.
.
4c/ 4e-/
.
.
.
.
.
.
.
.
.
.
.
=33
4B-/ 4d/
.
.
.
.
.
.
.
.
.
.
.
4c/ 4e-/
.
.
.
.
.
.
.
.
.
.
.
4B-/ 4d/
.
.
.
.
.
.
.
.
.
.
.
4g-\ 4ee-\
.
.
.
.
.
.
.
.
.
.
.
=34
4f/ 4dd/
.
.
.
.
.
.
.
.
.
.
.
(4.c#/ 4.e/
.
.
.
.
.
.
.
.
.
.
.
.
.
.
.
.
.
4d/) 4f/
.
.
.
.
.
.
.
.
.
.
.
8r
.
.
.
.
.
=35
4d/ 4g/
.
.
.
.
.
.
.
.
.
.
.
4f#/ 4a/
.
.
.
.
.
.
.
.
.
.
.
4g/ 4b-/
.
.
.
.
.
.
.
.
.
.
.
4d/ 4a/
.
.
.
.
.
.
.
.
.
.
.
=36
!!linebreak:original
6d/ 6b-/
.
.
.
.
.
.
.
6a/
.
.
.
.
.
.
.
6d/ 6a/ 6b-/
.
.
.
.
.
.
.
4c/ 4g/ 4cc/
.
.
.
.
.
.
.
.
.
.
.
4g/ 4a/ 4cc#/
.
.
.
.
.
.
.
.
.
.
.
=37
2f/ 2a/ 2dd/
.
.
.
.
.
.
.
.
.
.
.
.
.
.
.
.
.
.
.
.
.
.
.
4r
.
.
.
.
.
.
.
.
.
.
.
4d/ 4g/ 4b-/
.
.
.
.
.
.
.
.
.
.
.
=38
4d/ 4a/
.
.
.
.
.
.
.
.
.
.
.
4d/
.
.
.
.
.
.
.
.
.
.
.
4A/ 4d/
.
.
.
.
.
.
.
.
.
.
.
4E/ 4c#/
.
.
.
.
.
.
.
.
.
.
.
=39
!!linebreak:original
4F/ 4d/
.
.
.
.
.
.
.
.
.
.
.
4r
.
.
.
.
.
.
.
.
.
.
.
4r
.
.
.
.
.
.
.
.
.
.
.
8.f/L 8.a/L
.
.
.
.
.
.
.
.
16d/JJ 16f/JJ
.
.
=40
4c#/ 4e/
.
.
.
.
.
.
.
.
.
.
.
4r
.
.
.
.
.
.
.
.
.
.
.
4r
.
.
.
.
.
.
.
.
.
.
.
8.f/L 8.a/L
.
.
.
.
.
.
.
.
16d/JJ 16f/JJ
.
.
=41
4c#/ 4e/
.
.
.
.
.
.
.
.
.
.
.
4r
.
.
.
.
.
.
.
.
.
.
.
4r
.
.
.
.
.
.
.
.
.
.
.
8.B-/L 8.d/L
.
.
.
.
.
.
.
.
16G/JJ 16B-/JJ
.
.
=42
1F#/ 1A/
.
.
.
.
.
.
.
.
.
.
.
.
.
.
.
.
.
.
.
.
.
.
.
.
.
.
.
.
.
.
.
.
.
.
.
.
.
.
.
.
.
.
.
.
.
.
.
==
*-
